!!!COM: Vivaldi, Antonio Lucio
!!!CDT: 1678/03/04-1741/08/28
!!!OPR: 12 Sonatas for Violin and Basso continuo
!!!OTL: Sonata in A major, op. @{OPS}, no. @{ONM} (@{SCT})
!!!OPS: 2
!!!ONM: 2
!!!OMV: 3. Giga
!!!SCT: RV 31
!!!SCA: Antonio Vivaldi: Thematisch-systematisches Verzeichnis seiner Werke (Ryom-Verzeichnis)
!!!OMD: Allegro
!!!key: A
**kern	**fb	**kern
*part2	*	*part1
*staff2	*	*staff1
*ICklav	*	*ICstr
*Icemba	*	*Ivioln
*I"Basso continuo	*	*I"Violino
*I'bc	*	*I'v
*>[A,A,B,B]	*>[A,A,B,B]	*>[A,A,B,B]
*>norep[A,B]	*>norep[A,B]	*>norep[A,B]
*>A	*>A	*>A
*clefF4	*	*clefG2
*k[f#c#g#]	*	*k[f#c#g#]
*A:	*	*A:
*M12/8	*	*M12/8
*MM195	*	*MM195
8r	.	8ee\
=1	=1	=1
4.AA/	.	(4aa\
.	.	8ee\)
4.GG#y/	6	(4bb\
.	.	8ee\)
4.AA/	.	(4ccc#y\
.	.	8ee\)
4.BB/	6	(4ddd\
.	.	8ee\)
=2	=2	=2
4.C#y/	6	8eee\L
.	.	8ddd\
.	.	8ccc#y\J
4.D\	6	8bb\L
.	.	8ccc#y\
.	5	8aa\J
4.E\	.	8gg#y\L
.	.	8ff#y\
.	.	8ee\J
4.A\	.	8r
.	.	8r
.	.	8ee\
=3	=3	=3
4.B\	.	(8dd\L
.	.	8ff#y\)
.	.	8bb\J
4.A\	.	(8cc#y\L
.	.	8ee\)
.	.	8aa\J
4.G#y\	5	(8b\L
.	.	8dd\)
.	.	8gg#y\J
4.F#y\	.	(8a\L
.	.	8cc#y\)
.	.	8ff#y\J
=4	=4	=4
4.E\	.	(8g#y\L
.	.	8b\)
.	.	8ee\J
4.D\	.	(8f#y/L
.	.	8a/)
.	.	8dd/J
4.C#y/	.	(8e/L
.	.	8g#y/)
.	.	8cc#y/J
4.BB/	.	(8d/L
.	.	8f#y/)
.	.	8b/J
!!LO:LB:g=original
=5	=5	=5
4AA/	.	(8c#y/L
.	.	8e/)
8C#y/	.	8a/J
4D\	.	(8B/L
.	.	8d/)
8E\	.	8g#y/J
4.AA/	.	4.A/
[4.A\	.	8r
.	.	8a\L
.	.	8cc#y\J
=6	=6	=6
4.A\]	4 2	8b/L
.	.	8g#y/
.	.	8e/J
4.G#y\	6	8b\L
.	.	8ee\
.	.	8dd\J
4.A\	.	8cc#y\L
.	.	8b\
.	.	8a\J
[4.E\	.	8r
.	.	8ee\L
.	.	8gg#y\J
=7	=7	=7
4.E\]	4 2	8ff#y\L
.	.	8dd#y\
.	.	8b\J
4.D#X\	6	8ff#y\L
.	.	8bb\
.	.	8aa\J
4.E\	.	8gg#y\L
.	.	8ff#y\
.	.	8ee\J
[4.e\	.	8r
.	.	8r
.	.	8gg#y\
=8	=8	=8
4.e\]	4 2	(8ff#y\L
.	.	8ee\)
.	.	8ff#y\J
2.d#X\	6	4bb\
.	.	8dd#X\
.	4 2	(8ee\L
.	.	8dd#X\)
.	.	8ee\J
[4.c#y\	6	4aa\
.	.	8cc#y\
=9	=9	=9
4.c#y\]	4 2#|	(8dd#X\L
.	.	8cc#y\)
.	.	8dd#y\J
2.B\	6	4gg#y\
.	.	8b\
.	4 2	4cc#y\
.	.	8aa\
[4.A\	6	4ff#y\
.	.	8ee\
!!LO:LB:g=original
=10	=10	=10
4.A\]	4#| 2	(8dd#X\L
.	.	8cc#y\)
.	.	8b\J
4.G#y\	6	4bb\
.	.	8b\
4.A\	.	(8cc#y\L
.	.	8dd#X\)
.	.	8ee\J
4.B\	4	8f#y\L
.	.	8ee\
.	#	8dd#X\J
=11	=11	=11
4.E\	.	[4.ee\
4.A\	.	(8ee\L]
.	.	8cc#y\
.	.	8ee\J)
4.F#y\	6#/	[4.dd#X\
4.B\	#	(8dd#y\L]
.	.	8b\
.	.	8dd#X\J)
=12	=12	=12
4.E\	6	[4.cc#y\
4.A\	.	8cc#y\L]
.	.	8a\
.	.	8cc#y\J
2.D#X\	6	4b\
.	.	8cc#y\
.	5	(8cc#y\L
.	.	8b\
.	.	8a\J)
=13	=13	=13
4E\	.	(8g#y/L
.	.	8f#y/
8A\	.	8e/J)
4B\	#	4B/
8BB/	.	8d#X/
[4.E\	.	[4.e/
4E\]	.	4e/]
=:|!|:	=:|!|:	=:|!|:
*>B	*>B	*>B
8r	.	8b\
=14	=14	=14
4.E\	.	(4ee\
.	.	8b\)
4.D#X\	6	(4ff#y\
.	.	8b\)
4.E\	.	(4gg#y\
.	.	8b\)
4.F#y\	6#/	(4aa\
.	.	8b\)
!!LO:LB:g=original
=15	=15	=15
4.G#y\	6	8bb\L
.	.	8aa\
.	.	8gg#y\J
4.A\	.	8ff#y\L
.	.	8gg#y\
.	.	8ee\J
4.B\	#	8dd#X\L
.	.	8cc#y\
.	.	8b\J
8r	.	8r
8r	.	8r
8B\	.	8gg#y\
=16	=16	=16
4c#y\	6	4aa\
8B\	.	8gg#y\
4c#y\	6	4aa\
8B\	.	8gg#y\
4.A\	.	4.ff#y\T
4G#y\	6	4ee\
8G#y\	.	8ee\
=17	=17	=17
4A\	6	4ff#y\
8G#y\	.	8ee\
4A\	6	4ff#y\
8G#y\	.	8ee\
4F#y\	6#/	4dd#X\
8G#y\	.	8b#X\
4E\	6	4cc#y\
8D#X\	.	8dd#X\
=18	=18	=18
4C#y/	.	8ee\L
.	.	8dd#X\
8F#y\	.	8cc#y\J
4G#y\	#	4g#y/
8GG#y/	.	8b#X\
4.C#y/	.	[4.cc#y\
4.BB/	6 4 2	4cc#y\]
.	.	8ee\
=19	=19	=19
2.AA#X/	5	8ee\L
.	.	8cc#y\
.	.	8a#X\J
.	.	8f#y/L
.	.	8a#X/
.	.	8ee/J
2.BB/	.	8dd/L
.	.	8b/
.	.	8f#y/J
.	.	4B/
.	.	8bb\
!!LO:LB:g=original
=20	=20	=20
2.D#X\	6	8bb\L
.	.	8ff#y\
.	.	8dd#X\J
.	.	8b\L
.	.	8bb\
.	.	8aa\J
2.E\	.	8gg#y\L
.	.	8ee\
.	.	8b\J
.	.	4e/
.	.	8ee\
=21	=21	=21
2.GG#y/	6	(8e/L
.	.	8g#y/
.	.	8b/J)
.	5	(4ee\
.	.	8dd\)
2.AA/	4	(4.dd\T
.	3	4cc#y\)
.	.	8aa\
=22	=22	=22
2.C#y/	6	(8a\L
.	.	8cc#y\
.	.	8ee\J)
.	5nr	(4aa\
.	.	8ggn\)
2.D\	4nr	(4.gg\T
.	3	4ff#y\)
.	.	8dd\
=23	=23	=23
2.F#y\	6	(8d/L
.	.	8f#y/
.	.	8a/J)
.	5nr	(4dd\
.	.	8ccn\)
2.Gn\	4nr	(4.cc\T
.	3	4b\)
.	.	8ee\
=24	=24	=24
4.G#X\	6	(8e/L
.	.	8g#y/
.	.	8b/J)
4.GG#y/	.	(8ee\L
.	.	8dd\
.	.	8ee\J)
4.AA/	5	(8cc#y\L
.	.	8dd\
.	.	8ee\J)
4.A\	6	(8ff#y\L
.	.	8ee\
.	.	8ff#y\J)
=25	=25	=25
4.B\	5	(8dd\L
.	.	8ee\
.	.	8ff#y\J)
4.BB/	6	(8gg#y\L
.	.	8ff#y\
.	.	8gg#y\J)
4.C#y/	5	(8ee\L
.	.	8ff#y\
.	.	8gg#y\J)
4.c#y\	6	(8aa\L
.	.	8gg#y\
.	.	8aa\J)
!!LO:LB:g=original
=26	=26	=26
4.d\	5	(8ff#y\L
.	.	8gg#y\
.	.	8aa\J)
4.D\	6	(8bb\L
.	.	8aa\
.	.	8bb\J)
4e\	.	4.gg#y\
8d\	.	.
8c#y\L	6	8r
8B\	.	8r
8A\J	.	8ee\
=27	=27	=27
4.B\	.	(8dd\L
.	.	8ff#y\)
.	.	8bb\J
4.A\	.	(8cc#y\L
.	.	8ee\)
.	.	8aa\J
4.G#y\	5	(8b\L
.	.	8dd\)
.	.	8gg#y\J
4.F#y\	.	(8a\L
.	.	8cc#y\)
.	.	8ff#y\J
=28	=28	=28
4.E\	.	(8g#y\L
.	.	8b\)
.	.	8ee\J
4.D\	.	(8f#y/L
.	.	8a/)
.	.	8dd/J
4.C#y/	.	(8e/L
.	.	8g#y/)
.	.	8cc#y/J
4.BB/	.	(8d/L
.	.	8f#y/)
.	.	8b/J
=29	=29	=29
4AA/	.	(8c#y/L
.	.	8e/)
8C#y/	.	8a/J
4D\	.	(8B/L
.	.	8d/)
8E\	.	8g#y/J
4.AA/	.	4.A/
4r	.	8r
.	.	8r
8r	.	8b\
=30	=30	=30
[1.D#X	7nr	4ccn\
.	.	8b\
.	.	4ccn\
.	.	8b\
.	.	4.ccn\T
.	.	4b\
.	.	8ccn\
!!LO:LB:g=original
=31	=31	=31
2.D#y\]	8	4dd\
.	.	8ccn\
.	.	4b\
.	.	8a/
4E\	.	(8g#y/L
.	.	8f#y/)
8D\	.	8e/J
4C#y/	6	4a/
8BB/	.	8b\
=32	=32	=32
4AA/	.	(8cc#X\L
.	.	8b\)
8D\	.	8a\J
4E\	.	4e/
8EE/	.	8g#y/
4.AA/	.	4.a/
4r	.	8r
.	.	8r
8r	.	8b\
=33	=33	=33
[1.D#X	7nr	4ccn\
.	.	8b\
.	.	4ccn\
.	.	8b\
.	.	4.ccn\
.	.	4b\
.	.	8ccn\
=34	=34	=34
2.D#X\]	8	4dd\
.	.	8ccn\
.	.	4b\
.	.	8a/
4E\	.	8g#y/L
.	.	8f#y/
8Dn\	.	8e/J
4C#y/	6	4a/
8BB/	.	8b\
=35	=35	=35
4AA/	.	(8cc#X/L
.	.	8b/)
8D\	.	8a/J
4E\	.	4e/
8EE/	.	8g#y/
[2.AA/	.	8a\L
.	.	8aa\
.	.	8ee\J
.	.	8cc#y\L
.	.	8ee\
.	.	8cc#y\J
=36	=36	=36
2.AA/_	.	8a/L
.	.	8e/
.	.	8a/J
.	.	8c#y/L
.	.	8e/
.	.	8c#y/J
4.AA/_	.	[4.A/
4AA/]	.	4A/]
8ryy	.	8ryy
=:|!	=:|!	=:|!
*-	*-	*-
!!!SMS: RV 31 / Estienne Roger, Amsterdam [facs.]
!!!ENC: Fran Bennion; rev. E Correia (4/21)
!!!END: 2004/11/20
!!!ONB: Converted from MuseData with musedata2hum on Sat May 11 12:07:51 2024
!!!YEM: (C) 2004, 2004 Center for Computer Assisted Research in the Humanities.
!!!system-decoration: [(s1,s2)]
!!!URL-info: https://wiki.ccarh.org/wiki/MuseData:_Antonio_Vivaldi#Op._2:_Sonate_a_violino_e_basso_per_il_cembalo
!!!URL-pdf: https://pdf.musedata.org/vivaldi-op02-no02.pdf#page=3 MuseData edition
!!!URL-pdf: http://conquest.imslp.info/files/imglnks/usimg/b/b7/IMSLP99075-PMLP183164-Vivaldi_-_Sonatas_Op2.pdf#page=8 Estienne Roger Amsterdam: Estienne Roger, No.2, n.d.[1711].
!!!URL-youtube: https://www.youtube.com/watch?v=SiijZmW9jKM&t=229s L'Arte dell'Arco
!!!title: @{OTL}, mov. @{OMV}
!!!filter-chint: chint -mid
!!!EEV: 2024/05/11
!!!source-file: https://bitbucket.org/musedata/vivaldi/src/master/roger/op2/no02/stage2/03/01
!!!source-file: https://bitbucket.org/musedata/vivaldi/src/master/roger/op2/no02/stage2/03/02
